bundles/org.openhab.ui.habpanel/web/assets/icons/freepik-housethings/phone-tool-of-home.svg

<svg xmlns="http://www.w3.org/2000/svg" width="526.417" height="526.416" style="enable-background:new 0 0 526.417 526.416" xml:space="preserve"><path d="M111.881 396.365c0 54.506 27.731 102.797 69.328 130.051h163.997c41.597-27.732 69.328-75.545 69.328-130.051 0-43.031-17.213-81.76-44.466-109.969v116.186c0 21.992-20.56 44.465-42.553 44.465H206.55c-21.994 0-44.944-22.473-44.944-44.465V281.615c-30.6 28.209-49.725 69.328-49.725 114.75z"/><path d="M349.509 21.038c-.956-7.65-3.347-13.388-6.693-17.213C340.904 1.434 338.035 0 335.644 0h-10.519c-4.304 0-8.606 3.825-10.997 10.041-1.912 4.781-3.347 20.081-3.347 20.081H206.55c-16.256 0-25.341 9.084-25.341 28.688v343.773c0 15.777 13.866 24.861 25.341 24.861h120.966c10.997 0 22.472-10.041 22.472-24.861V31.557c0-.479 0-7.651-.479-10.519zM320.344 298.35H290.7v-39.684h29.644v39.684zm0 39.685H290.7V308.39h29.644v29.645zm-109.012-79.369h29.644v39.684h-29.644v-39.684zm39.684-16.735V208.94h29.644v39.685h-29.644v-6.694zm29.644-62.156c0-6.216 6.693-10.997 14.344-10.997h10.519c8.128 0 14.344 4.781 14.344 10.519v.478c0 5.737-6.693 9.084-14.344 9.084h-10.519c-8.129 0-14.344-3.347-14.344-9.084zm0 78.891v39.684h-29.644v-39.684h29.644zm-69.328 49.246h29.644v29.645h-29.644v-29.645zm39.684 0h29.644v29.645h-29.644v-29.645zm58.331-59.287h-19.125V208.94h5.737c11.953 0 23.906 9.084 23.906 20.082v20.081h-10.519v-.478zM211.332 79.847c0-10.997 9.562-20.081 21.994-20.081h65.503c11.953 0 21.993 9.084 21.993 20.081v49.725c0 10.997-9.562 20.081-21.993 20.081h-65.981c-11.953 0-21.994-9.084-21.994-20.081V79.847h.478zm0 99.45c0-5.738 6.694-10.519 14.344-10.519h10.519c8.128 0 14.344 4.781 14.344 10.519v.478c0 5.737-6.693 9.084-14.344 9.084h-10.519c-8.129 0-14.344-3.347-14.344-9.562zm0 49.246c0-10.997 9.562-20.081 21.516-20.081h8.606v39.685H211.81v-19.604h-.478zm0 149.176v-29.645h29.644v49.248h-8.606c-11.476 0-21.038-8.607-21.038-19.603zm39.684-30.121h29.644v49.725h-29.644v-49.725zm69.328 30.121c0 10.996-11.953 20.082-23.906 20.082h-5.737v-50.203h29.644v30.121z"/></svg>

<?xml version="1.0" encoding="iso-8859-1"?>
<!-- Generator: Adobe Illustrator 16.0.0, SVG Export Plug-In . SVG Version: 6.00 Build 0)  -->
<!DOCTYPE svg PUBLIC "-//W3C//DTD SVG 1.1//EN" "http://www.w3.org/Graphics/SVG/1.1/DTD/svg11.dtd">
<svg version="1.1" id="Capa_1" xmlns="http://www.w3.org/2000/svg" xmlns:xlink="http://www.w3.org/1999/xlink" x="0px" y="0px"
	 width="526.417px" height="526.416px" viewBox="0 0 526.417 526.416" style="enable-background:new 0 0 526.417 526.416;"
	 xml:space="preserve">
<g>
	<path d="M111.881,396.365c0,54.506,27.731,102.797,69.328,130.051h163.997c41.597-27.732,69.328-75.545,69.328-130.051
		c0-43.031-17.213-81.76-44.466-109.969v116.186c0,21.992-20.56,44.465-42.553,44.465H206.55c-21.994,0-44.944-22.473-44.944-44.465
		V281.615C131.006,309.824,111.881,350.943,111.881,396.365z"/>
	<path d="M349.509,21.038c-0.956-7.65-3.347-13.388-6.693-17.213C340.904,1.434,338.035,0,335.644,0h-10.519
		c-4.304,0-8.606,3.825-10.997,10.041c-1.912,4.781-3.347,20.081-3.347,20.081H206.55c-16.256,0-25.341,9.084-25.341,28.688v343.773
		c0,15.777,13.866,24.861,25.341,24.861h120.966c10.997,0,22.472-10.041,22.472-24.861c0,0,0-367.679,0-371.026
		C349.988,31.078,349.988,23.906,349.509,21.038z M320.344,298.35h-29.644v-39.684h29.644V298.35z M320.344,338.035h-29.644v-29.645
		h29.644V338.035z M211.332,258.666h29.644v39.684h-29.644V258.666z M251.016,241.931V208.94h29.644v33.469v6.216h-29.644V241.931z
		 M280.66,179.775L280.66,179.775c0-6.216,6.693-10.997,14.344-10.997h10.519c8.128,0,14.344,4.781,14.344,10.519v0.478
		c0,5.737-6.693,9.084-14.344,9.084h-10.519C286.875,188.859,280.66,185.512,280.66,179.775z M280.66,258.666v39.684h-29.644
		v-39.684H280.66z M211.332,307.912h29.644v29.645h-29.644V307.912z M251.016,307.912h29.644v29.645h-29.644V307.912z
		 M309.347,248.625h-19.125v-4.781V208.94h5.737c11.953,0,23.906,9.084,23.906,20.082v20.081h-10.519V248.625z M211.332,79.847
		c0-10.997,9.562-20.081,21.994-20.081h65.503c11.953,0,21.993,9.084,21.993,20.081v49.725c0,10.997-9.562,20.081-21.993,20.081
		h-65.981c-11.953,0-21.994-9.084-21.994-20.081V79.847H211.332z M211.332,179.297c0-5.738,6.694-10.519,14.344-10.519h10.519
		c8.128,0,14.344,4.781,14.344,10.519v0.478c0,5.737-6.693,9.084-14.344,9.084h-10.519
		C217.547,188.859,211.332,185.512,211.332,179.297L211.332,179.297z M211.332,228.543c0-10.997,9.562-20.081,21.516-20.081h8.606
		v33.947v5.738h-23.906h-5.738v-19.604H211.332z M211.332,377.719v-29.645h29.644v49.248h-8.606
		C220.894,397.322,211.332,388.715,211.332,377.719z M251.016,347.598h29.644v49.725h-29.644V347.598z M320.344,377.719
		c0,10.996-11.953,20.082-23.906,20.082h-5.737v-50.203h29.644V377.719z"/>
</g>
<g>
</g>
<g>
</g>
<g>
</g>
<g>
</g>
<g>
</g>
<g>
</g>
<g>
</g>
<g>
</g>
<g>
</g>
<g>
</g>
<g>
</g>
<g>
</g>
<g>
</g>
<g>
</g>
<g>
</g>
</svg>
